!!!COM:	Bach, Johann Sebastian
!!!CDT:	1685/02/21/-1750/07/28/
!!!OTL@@DE:	Wie sch&ouml;n leuchtet der Morgenstern
!!!SCT:	BWV 172/6
!!!PC#:	323
!!!AGN:	chorale
**kern	**kern	**kern	**kern
*ICvox	*ICvox	*ICvox	*ICvox
*Ibass	*Itenor	*Ialto	*Isoprn
*I"Bass	*I"Tenor	*I"Alto	*I"Soprano
*>[A,A,B]	*>[A,A,B]	*>[A,A,B]	*>[A,A,B]
*>norep[A,B]	*>norep[A,B]	*>norep[A,B]	*>norep[A,B]
*>A	*>A	*>A	*>A
*	*oclefC4	*oclefC3	*oclefC1
*clefF4	*clefGv2	*clefG2	*clefG2
*k[b-]	*k[b-]	*k[b-]	*k[b-]
*F:	*F:	*F:	*F:
*M4/4	*M4/4	*M4/4	*M4/4
*met(c)	*met(c)	*met(c)	*met(c)
*MM100	*MM100	*MM100	*MM100
4F	4A	4c	4f
=1	=1	=1	=1
4E	4G	4c	8ccL
.	.	.	8b-J
8FL	8FL	4c	8aL
8EJ	8GJ	.	8gJ
4D	8AL	8dL	4f
.	8B-J	8eJ	.
4AA	4c	4f	4cc
=2	=2	=2	=2
8BB-L	8cL	4f	4dd
8CJ	16B-L	.	.
.	16AJJ	.	.
8DL	8B-L	4f	4dd
8EJ	8B-J	.	.
4F;	4A;	4f;	4cc;
4E	4c	4g	4cc
=3	=3	=3	=3
4F	4c	4a	4dd
4G	4B	4g	4ee
8AL	8cL	8fL	4ff
8BJ	8dJ	8gJ	.
8cL	8eL	4g	4ee
8EJ	8GJ	.	.
=4	=4	=4	=4
8FL	8AL	4f	4dd
8DJ	16BL	.	.
.	16cJJ	.	.
4G	4B	4f	4dd
4C;	4c;	4e;	4cc;
4F	4c	4f	4a
=5	=5	=5	=5
4BB-	8B-XL	4f	4dd
.	8AJ	.	.
4C	4G	4e	4cc
8DL	8dL	8fL	4b-
8EJ	8cJ	8gJ	.
8FL	4c	4f	4a
8BB-J	.	.	.
=6	=6	=6	=6
2C	8GL	4f	2g
.	8A	.	.
.	8B-	4e	.
.	8cJ	.	.
4FF;	4A;	4c;	4f;
=:|!	=:|!	=:|!	=:|!
*>B	*>B	*>B	*>B
4r	4ry	4ry	4r
=7	=7	=7	=7
2E	2c	2g	2cc
2F;	2c;	2a;	2a;
=8	=8	=8	=8
2E	2c	2g	2cc
2F;	2c;	2f;	2a;
=9	=9	=9	=9
8FFL	4c	4f	4a
8GGJ	.	.	.
8AAL	4c	4f	4a
8BB-J	.	.	.
8CL	4c	8eL	4g
8DJ	.	8dJ	.
8EL	8cL	4c	4g
8CJ	8B-J	.	.
=10	=10	=10	=10
8FL	8AL	4c	4a
8GJ	8B-J	.	.
8AL	4c	8cL	4a
8B-J	.	8dJ	.
8cL	4c	4e	4g
8B-	.	.	.
8A	4c	4e	4g
8GJ	.	.	.
=11	=11	=11	=11
8FL	4c	4f	4a
8EJ	.	.	.
8DL	4d	4f	4a
8CJ	.	.	.
8BB-L	4d	4f	2g
8GGJ	.	.	.
4C	8cL	4e	.
.	8B-J	.	.
=12	=12	=12	=12
2FF;	2A;	2f;	2f;
8DDL	8dL	4a	4ff
8FFJ	8cJ	.	.
8GGL	4B-	4g	4ee
8AAJ	.	.	.
=13	=13	=13	=13
4BB-	8B-L	4f	4dd
.	8AJ	.	.
4C	4G	4e	4cc
8DL	8FL	4d	4b-
8EJ	8GJ	.	.
8FL	8AL	4c	4a
8AAJ	8cJ	.	.
=14	=14	=14	=14
8BB-L	8.B-L	4d	2g
8GGJ	.	.	.
.	16AJk	.	.
4C	8GL	4e	.
.	16AL	.	.
.	16B-JJ	.	.
4FF;	4A;	4c;	4f;
==	==	==	==
*-	*-	*-	*-
!!!YOR1: 371 vierstimmige Choralges&auml;nge von Johann Sebastian Bach, 
!!!YOR2: 4th ed. by Alfred D&ouml;rffel (Leipzig: Breitkopf und H&auml;rtel, 
!!!YOR2: c.1875). 178 pp. Plate "V.A.10".  reprint: J.S. Bach, 371 Four-Part 
!!!YOR4: Chorales (New York: Associated Music Publishers, Inc., c.1940).
!!!SMS: B&H, 4th ed, Alfred D&ouml;rffel, c.1875, plate V.A.10
!!!EED:  Craig Stuart Sapp
!!!EEV:  2009/05/22
